resources/img/scalable/actions/flypie-action-command-symbolic.svg

<?xml version="1.0" encoding="UTF-8" standalone="no"?>
<svg
   xmlns:dc="http://purl.org/dc/elements/1.1/"
   xmlns:cc="http://creativecommons.org/ns#"
   xmlns:rdf="http://www.w3.org/1999/02/22-rdf-syntax-ns#"
   xmlns:svg="http://www.w3.org/2000/svg"
   xmlns="http://www.w3.org/2000/svg"
   xmlns:sodipodi="http://sodipodi.sourceforge.net/DTD/sodipodi-0.dtd"
   xmlns:inkscape="http://www.inkscape.org/namespaces/inkscape"
   width="4.2333mm"
   height="4.2333mm"
   version="1.1"
   viewBox="0 0 4.2333 4.2333"
   id="svg923"
   sodipodi:docname="flypie-action-command-symbolic.svg"
   inkscape:version="1.0.2 (e86c870879, 2021-01-15)">
  <defs
     id="defs927" />
  <sodipodi:namedview
     pagecolor="#ffffff"
     bordercolor="#666666"
     borderopacity="1"
     objecttolerance="10"
     gridtolerance="10"
     guidetolerance="10"
     inkscape:pageopacity="0"
     inkscape:pageshadow="2"
     inkscape:window-width="1341"
     inkscape:window-height="870"
     id="namedview925"
     showgrid="false"
     inkscape:zoom="11.411037"
     inkscape:cx="1.3127885"
     inkscape:cy="1.1728125"
     inkscape:window-x="0"
     inkscape:window-y="32"
     inkscape:window-maximized="0"
     inkscape:current-layer="svg923"
     inkscape:document-rotation="0" />
  <metadata
     id="metadata907">
    <rdf:RDF>
      <cc:Work
         rdf:about="">
        <dc:format>image/svg+xml</dc:format>
        <dc:type
           rdf:resource="http://purl.org/dc/dcmitype/StillImage" />
        <dc:title />
      </cc:Work>
    </rdf:RDF>
  </metadata>
  <path
     d="m 0.69230527,0.28278324 c -0.29599467,0 -0.53998465,0.24725561 -0.53998465,0.54239091 V 3.4234451 c 0,0.2951352 0.24398752,0.5423909 0.53998465,0.5423909 H 3.5410239 c 0.2959946,0 0.5399846,-0.2472557 0.5399846,-0.5423909 V 0.82517415 c 0,-0.2951353 -0.2439851,-0.54239091 -0.5399846,-0.54239091 z m 0,0.49107371 H 3.5410239 c 0.030152,0 0.048916,0.0174576 0.048916,0.0513123 V 3.4234402 c 0,0.033845 -0.018759,0.051312 -0.048916,0.051312 H 0.69230527 c -0.0301544,0 -0.0489158,-0.017458 -0.0489158,-0.051312 V 0.82516924 c -3e-8,-0.0338472 0.0187639,-0.0513123 0.0489158,-0.0513123 z"
     color="#bebebe"
     color-rendering="auto"
     dominant-baseline="auto"
     enable-background="accumulate"
     fill="#2e3436"
     image-rendering="auto"
     shape-rendering="auto"
     solid-color="#000000"
     stop-color="#000000"
     style="font-variant-ligatures:normal;font-variant-position:normal;font-variant-caps:normal;font-variant-numeric:normal;font-variant-alternates:normal;font-variant-east-asian:normal;font-feature-settings:normal;font-variation-settings:normal;text-indent:0;text-decoration:none;text-decoration-line:none;text-decoration-style:solid;text-decoration-color:#000000;text-transform:none;text-orientation:mixed;white-space:normal;shape-padding:0;shape-margin:0;inline-size:0;isolation:auto;mix-blend-mode:normal;stroke-width:0.26458"
     id="path911" />
  <path
     d="m 1.2619508,1.7314506 a 0.14732211,0.14732211 0 0 0 -0.1079012,0.043161 0.14732211,0.14732211 0 0 0 0,0.2081318 L 1.5410648,2.3697582 1.1540496,2.7567733 a 0.14732211,0.14732211 0 0 0 0,0.2081318 0.14732211,0.14732211 0 0 0 0.2081318,0 L 1.8532551,2.4738314 a 0.14733684,0.14733684 0 0 0 0,-0.2081318 L 1.3621814,1.7746259 a 0.14732211,0.14732211 0 0 0 -0.1002306,-0.04316 z"
     color="#bebebe"
     color-rendering="auto"
     dominant-baseline="auto"
     enable-background="accumulate"
     fill="#2e3436"
     image-rendering="auto"
     shape-rendering="auto"
     solid-color="#000000"
     stop-color="#000000"
     style="font-variant-ligatures:normal;font-variant-position:normal;font-variant-caps:normal;font-variant-numeric:normal;font-variant-alternates:normal;font-variant-east-asian:normal;font-feature-settings:normal;font-variation-settings:normal;text-indent:0;text-decoration:none;text-decoration-line:none;text-decoration-style:solid;text-decoration-color:#000000;text-transform:none;text-orientation:mixed;white-space:normal;shape-padding:0;shape-margin:0;inline-size:0;isolation:auto;mix-blend-mode:normal;stroke-width:0.26458"
     id="path915" />
  <rect
     x="2.1164191"
     y="2.7381523"
     width="0.73661053"
     height="0.24553686"
     color="#bebebe"
     enable-background="accumulate"
     fill="#2e3436"
     id="rect917"
     style="stroke-width:0.26458" />
</svg>

<svg xmlns="http://www.w3.org/2000/svg" width="16" height="16" viewBox="0 0 4.233 4.233"><path d="M.692.283a.546.546 0 0 0-.54.542v2.598c0 .296.244.543.54.543h2.849c.296 0 .54-.247.54-.543V.825a.546.546 0 0 0-.54-.542zm0 .49h2.849c.03 0 .049.018.049.052v2.598c0 .034-.019.052-.049.052H.692c-.03 0-.049-.018-.049-.052V.825c0-.034.02-.051.05-.051z" color="#bebebe" fill="#2e3436" style="font-variant-ligatures:normal;font-variant-position:normal;font-variant-caps:normal;font-variant-numeric:normal;font-variant-alternates:normal;font-variant-east-asian:normal;font-feature-settings:normal;font-variation-settings:normal;text-indent:0;text-decoration:none;text-decoration-line:none;text-decoration-style:solid;text-decoration-color:#000;text-transform:none;text-orientation:mixed;white-space:normal;shape-padding:0;shape-margin:0;inline-size:0;isolation:auto;mix-blend-mode:normal;stroke-width:.26458"/><path d="M1.262 1.731a.147.147 0 0 0-.108.044.147.147 0 0 0 0 .208l.387.387-.387.387a.147.147 0 0 0 0 .208.147.147 0 0 0 .208 0l.491-.491a.147.147 0 0 0 0-.208l-.49-.491a.147.147 0 0 0-.101-.044z" color="#bebebe" fill="#2e3436" style="font-variant-ligatures:normal;font-variant-position:normal;font-variant-caps:normal;font-variant-numeric:normal;font-variant-alternates:normal;font-variant-east-asian:normal;font-feature-settings:normal;font-variation-settings:normal;text-indent:0;text-decoration:none;text-decoration-line:none;text-decoration-style:solid;text-decoration-color:#000;text-transform:none;text-orientation:mixed;white-space:normal;shape-padding:0;shape-margin:0;inline-size:0;isolation:auto;mix-blend-mode:normal;stroke-width:.26458"/><path color="#bebebe" fill="#2e3436" style="stroke-width:.26458" d="M2.116 2.738h.737v.246h-.737z"/></svg>
